images/notification-1.svg

<svg width="50" height="50" viewBox="0 0 50 50" fill="none" xmlns="http://www.w3.org/2000/svg">
<path d="M0 8C0 3.58172 3.58172 0 8 0H42C46.4183 0 50 3.58172 50 8V42C50 46.4183 46.4183 50 42 50H8C3.58172 50 0 46.4183 0 42V8Z" fill="#F6F7F8"/>
<g clip-path="url(#clip0)">
<path d="M30.2 33.5V41L24.9 38.9L19.4 41V33.4C20.8 35.3 22.5 34.9 24.2 34.1C24.5 34 24.8 34 25.1 34.1C27 34.9 28.8 35.4 30.2 33.5Z" fill="#00C9C9"/>
<path d="M24.8 16.2999C21.8 16.2999 19.5 18.6999 19.5 21.5999C19.5 24.5999 21.9 26.8999 24.8 26.8999C27.7 26.8999 30.1 24.4999 30.1 21.5999C30.1 18.6999 27.8 16.2999 24.8 16.2999Z" fill="#00C9C9"/>
<path d="M36.2 22.1L35.7 21.3C35.4 20.8 35.3 20.2 35.4 19.6L35.7 18.4C36 17.4 35.5 16.3 34.5 15.9L33.6 15.5C33 15.2 32.7 14.7 32.5 14.2L32.1 13C31.8 12 30.8 11.4 29.7 11.5L28.7 11.6C28.1 11.7 27.5 11.5 27 11.2L26.1 10.4C25.3 9.79995 24.1 9.79995 23.3 10.4L22.6 11.2C22.2 11.5 21.7 11.7 21 11.7L19.9 11.5C18.9 11.4 17.9 12.1 17.5 13L17.2 14C17 14.6 16.7 15.1 16.1 15.3L15.1 15.8C14.1 16.3 13.7 17.3 14 18.4L14.2 19.4C14.4 20 14.2 20.5 14 21.1L13.4 22.1C12.9 23 13 24.1 13.8 24.8L14.5 25.5C15 25.9 15.2 26.4 15.3 27V28.2C15.4 29.2 16.1 30.0999 17.2 30.2999L18.2 30.5C18.8 30.6 19.3 30.7999 19.7 31.4L20.4 32.2999C21 33.1999 22.1 33.5 23.1 33.1L24 32.7C24.6 32.4 25.1 32.4 25.7 32.7L26.7 33.1C27.7 33.5 28.8 33.1999 29.4 32.2999L30 31.5C30.3 31 30.8 30.7 31.5 30.6L32.6 30.4C33.6 30.1999 34.4 29.2999 34.4 28.2999L34.5 27.2999C34.5 26.6999 34.7 26.1 35.2 25.7L36 24.9C36.6 24.1 36.8 23 36.2 22.1ZM24.9 28.6C21 28.6 18 25.5 18 21.7C18 17.9 21 14.8 24.9 14.8C28.7 14.8 31.8 17.9 31.8 21.7C31.7 25.5 28.7 28.6 24.9 28.6Z" fill="#00C9C9"/>
</g>
<defs>
<clipPath id="clip0">
<rect width="24" height="31" fill="white" transform="translate(13 10)"/>
</clipPath>
</defs>
</svg>

<svg width="50" height="50" fill="none" xmlns="http://www.w3.org/2000/svg"><path d="M0 8a8 8 0 018-8h34a8 8 0 018 8v34a8 8 0 01-8 8H8a8 8 0 01-8-8V8z" fill="#F6F7F8"/><g clip-path="url(#clip0)" fill="#00C9C9"><path d="M30.2 33.5V41l-5.3-2.1-5.5 2.1v-7.6c1.4 1.9 3.1 1.5 4.8.7.3-.1.6-.1.9 0 1.9.8 3.7 1.3 5.1-.6zM24.8 16.3c-3 0-5.3 2.4-5.3 5.3 0 3 2.4 5.3 5.3 5.3s5.3-2.4 5.3-5.3-2.3-5.3-5.3-5.3z"/><path d="M36.2 22.1l-.5-.8c-.3-.5-.4-1.1-.3-1.7l.3-1.2c.3-1-.2-2.1-1.2-2.5l-.9-.4c-.6-.3-.9-.8-1.1-1.3l-.4-1.2c-.3-1-1.3-1.6-2.4-1.5l-1 .1c-.6.1-1.2-.1-1.7-.4l-.9-.8c-.8-.6-2-.6-2.8 0l-.7.8c-.4.3-.9.5-1.6.5l-1.1-.2c-1-.1-2 .6-2.4 1.5l-.3 1c-.2.6-.5 1.1-1.1 1.3l-1 .5c-1 .5-1.4 1.5-1.1 2.6l.2 1c.2.6 0 1.1-.2 1.7l-.6 1c-.5.9-.4 2 .4 2.7l.7.7c.5.4.7.9.8 1.5v1.2c.1 1 .8 1.9 1.9 2.1l1 .2c.6.1 1.1.3 1.5.9l.7.9c.6.9 1.7 1.2 2.7.8l.9-.4c.6-.3 1.1-.3 1.7 0l1 .4c1 .4 2.1.1 2.7-.8l.6-.8c.3-.5.8-.8 1.5-.9l1.1-.2c1-.2 1.8-1.1 1.8-2.1l.1-1c0-.6.2-1.2.7-1.6l.8-.8c.6-.8.8-1.9.2-2.8zm-11.3 6.5c-3.9 0-6.9-3.1-6.9-6.9 0-3.8 3-6.9 6.9-6.9 3.8 0 6.9 3.1 6.9 6.9-.1 3.8-3.1 6.9-6.9 6.9z"/></g><defs><clipPath id="clip0"><path fill="#fff" transform="translate(13 10)" d="M0 0h24v31H0z"/></clipPath></defs></svg>
